logos/sia.svg

<svg xmlns="http://www.w3.org/2000/svg" width="40" height="40" viewBox="0 0 40 40">
  <g fill="none" fill-rule="evenodd">
    <path fill="#FFFFFF" fill-rule="nonzero" d="M30.3959391,39.7969543 C28.2436548,39.7969543 26.071066,39.8172589 23.9187817,39.7969543 C22.071066,39.7563452 20.284264,39.3096447 18.5989848,38.5380711 C14.5583756,36.7106599 11.7563452,33.7055838 10.3147208,29.5025381 C9.70558376,27.7360406 9.46192893,25.8883249 9.56345178,24.0203046 C9.66497462,22.1116751 10.0913706,20.2639594 10.8832487,18.5177665 C11.3299492,17.5431472 11.5939086,16.5076142 11.5736041,15.4314721 C11.5532995,13.7258883 11.0253807,12.1827411 9.8680203,10.9441624 C8.67005076,9.64467005 7.43147208,8.40609137 6.15228426,7.18781726 C5.46192893,6.5177665 4.56852792,6.29441624 3.63451777,6.45685279 C1.92893401,6.74111675 0.284263959,5.52284264 0.0406091371,3.79695431 C-0.203045685,2.1928934 0.873096447,0.446700508 2.78172589,0.223350254 C4.69035533,-9.71445147e-16 6.11167513,1.44162437 6.25380711,2.98477157 C6.27411168,3.30964467 6.27411168,3.63451777 6.23350254,3.95939086 C6.1319797,4.87309645 6.35532995,5.68527919 6.98477157,6.33502538 C8.20304569,7.59390863 9.44162437,8.85279188 10.7208122,10.0507614 C11.8781726,11.1472081 13.319797,11.6751269 14.9035533,11.7766497 C16.1015228,11.857868 17.2182741,11.5939086 18.2944162,11.106599 C19.8984772,10.3756345 21.5837563,9.92893401 23.3502538,9.8071066 C28.4873096,9.4822335 32.7309645,11.2893401 36.1015228,15.1878173 C37.8071066,17.177665 38.9035533,19.4720812 39.3096447,22.0507614 C39.4720812,23.0659898 39.5736041,24.1015228 39.5736041,25.1167513 C39.6142132,29.035533 39.5939086,32.9543147 39.5939086,36.893401 C39.5939086,38.3350254 38.5786802,39.5532995 37.1370558,39.7969543 C37.035533,39.8172589 36.9340102,39.8172589 36.8121827,39.8172589 C34.7005076,39.7969543 32.5482234,39.7969543 30.3959391,39.7969543 C30.3959391,39.7969543 30.3959391,39.7969543 30.3959391,39.7969543 Z M33.0964467,27.4314721 C33.1167513,27.4314721 33.1370558,27.4314721 33.1370558,27.4314721 C33.0964467,26.0507614 33.0964467,24.6700508 32.9746193,23.3096447 C32.9137056,22.5380711 32.751269,21.7258883 32.4670051,20.9949239 C30.964467,17.2385787 26.8629442,14.6598985 22.4568528,15.5126904 C17.6649746,16.4263959 14.5177665,20.8324873 15.2284264,25.6040609 C15.6548223,28.4060914 17.1370558,30.5380711 19.5532995,32.0203046 C21.0152284,32.9137056 22.6395939,33.2588832 24.3451777,33.2791878 C26.2944162,33.2994924 28.2233503,33.2791878 30.1725888,33.2791878 C30.3756345,33.2791878 30.5786802,33.2588832 30.7817259,33.2385787 C32.1218274,33.0558376 33.0964467,31.9390863 33.0964467,30.5989848 C33.0964467,29.5431472 33.0964467,28.4873096 33.0964467,27.4314721 Z"/>
    <rect width="40" height="40"/>
  </g>
</svg>

<svg xmlns="http://www.w3.org/2000/svg" width="40" height="40"><g fill="none" fill-rule="evenodd"><path fill="#FFF" fill-rule="nonzero" d="M30.396 39.797c-2.152 0-4.325.02-6.477 0-1.848-.04-3.635-.487-5.32-1.259-4.04-1.827-6.843-4.832-8.284-9.035a14.352 14.352 0 0 1-.752-5.483c.102-1.908.528-3.756 1.32-5.502.447-.975.71-2.01.69-3.087-.02-1.705-.548-3.248-1.705-4.487a81.04 81.04 0 0 0-3.716-3.756c-.69-.67-1.583-.894-2.517-.731C1.929 6.74.285 5.523.04 3.797-.203 2.193.873.447 2.78.223a3.106 3.106 0 0 1 3.475 2.762c.02.325.02.65-.02.974-.102.914.121 1.726.75 2.376 1.219 1.259 2.458 2.518 3.737 3.716 1.157 1.096 2.599 1.624 4.183 1.726 1.198.08 2.314-.183 3.39-.67a14.527 14.527 0 0 1 5.056-1.3c5.137-.325 9.381 1.482 12.752 5.38 1.705 1.99 2.802 4.285 3.208 6.864.162 1.015.264 2.05.264 3.066.04 3.919.02 7.837.02 11.776a2.924 2.924 0 0 1-2.457 2.904c-.101.02-.203.02-.325.02-2.111-.02-4.264-.02-6.416-.02zm2.7-12.366h.041c-.04-1.38-.04-2.76-.162-4.121a8.294 8.294 0 0 0-.508-2.315c-1.503-3.756-5.604-6.335-10.01-5.482-4.792.913-7.94 5.32-7.229 10.091.427 2.802 1.91 4.934 4.325 6.416 1.462.894 3.087 1.239 4.792 1.26 1.95.02 3.878 0 5.828 0 .203 0 .406-.021.609-.041a2.652 2.652 0 0 0 2.314-2.64v-3.168z"/><path d="M0 0h40v40H0z"/></g></svg>
